X:1677
T:Bobby Casey's
T:Crosses of Annagh, The
T:Michael Dwyer's
T:Hump in the Bed, The
C:Michael Dwyer
R:reel
Z:id:hn-reel-288
M:C|
K:D
DFAB B2AB|d2fd edBA|DFAB B2AB|dgfd edBA|
DFAB B2AB|d2fd edBd|faaf gefe|defd edBA:|
|:d2df eBBA|defg affe|dcdf eB~B2|gB~B2 dBAB|
d2fd edfd|Adfd edBd|ABdf afbf|afeg fddA:|


